X:1
T:Buerstenbinder
C:traditionell
A:Deutschland
%%textfont Helvetica-Narrow 10pt
%%begintext align
B:Pijpersboek, Mart Heijmans, Muziekuitgeverij van Teeseling, Nijmegen, 1980
N:im buch nr 44
N:im buch ganz in C  1. ton g''
%%endtext
F:http://simonwascher.info/
Z:abc transcription Simon Wascher
M:2/4
L:1/8
K:C
G |:\
ee cc | d>e ff | dd BB | c>e gg |\
ee cc | d>e ff | dd BG |1 c3 g :|\
                       [2 c3 d/e/ ||
|:\
ff df | ee ce | dd BB | c>e g d/e/ |\
ff df | ee ce | dd BG |1 c3 d/e/ :|\
                      [2 c3 |]
%%wordsfont Times-Italic 11pt
W:aus Simon Waschers TradArchiv
